icons/editor/comment.svg

<svg width="32" height="32" viewBox="0 0 32 32" fill="none" xmlns="http://www.w3.org/2000/svg">
<path fill-rule="evenodd" clip-rule="evenodd" d="M2 5.99999C2 4.89542 2.89543 3.99998 4 3.99998H28C29.1046 3.99998 30 4.89541 30 5.99998V22C30 23.1046 29.1046 24 28 24H16.0809L11.4142 28.6667C10.1543 29.9266 8 29.0342 8 27.2524V24H4C2.89543 24 2 23.1046 2 22V5.99999ZM28 5.99998L4 5.99999V22H9H10V23V27.2524L14.6667 22.5858C15.0417 22.2107 15.5504 22 16.0809 22H28V5.99998Z" fill="black"/>
</svg>

<svg viewBox="0 0 32 32" xmlns="http://www.w3.org/2000/svg"><path fill-rule="evenodd" d="M2 6a2 2 0 012-2h24a2 2 0 012 2v16a2 2 0 01-2 2H16.08l-4.666 4.667C10.154 29.927 8 29.034 8 27.252V24H4a2 2 0 01-2-2V6zm26 0H4v16h6v5.252l4.667-4.666A2 2 0 0116.08 22H28V6z"/></svg>
